material/.icons/material/bowl-outline.svg

<svg xmlns="http://www.w3.org/2000/svg" viewBox="0 0 24 24"><path d="M2 12v3c0 3.9 3.1 7 7 7h6c3.9 0 7-3.1 7-7v-3H2m2 2h16v1c0 2.8-2.2 5-5 5H9c-2.8 0-5-2.2-5-5v-1z"/></svg>

<?xml version="1.0" encoding="UTF-8"?><!DOCTYPE svg PUBLIC "-//W3C//DTD SVG 1.1//EN" "http://www.w3.org/Graphics/SVG/1.1/DTD/svg11.dtd"><svg xmlns="http://www.w3.org/2000/svg" xmlns:xlink="http://www.w3.org/1999/xlink" version="1.1" id="mdi-bowl-outline" width="24" height="24" viewBox="0 0 24 24"><path d="M2 12V15C2 18.9 5.1 22 9 22H15C18.9 22 22 18.9 22 15V12H2M4 14H20V15C20 17.8 17.8 20 15 20H9C6.2 20 4 17.8 4 15V14Z" /></svg>
